remix/Finance/exchange-cny-line.svg

<svg viewBox="0 0 24 24" fill="currentColor" xmlns="http://www.w3.org/2000/svg"><path d="M19.3788 15.1057C20.9258 11.4421 19.5373 7.11431 16.0042 5.0745C13.4511 3.60046 10.4232 3.69365 8.03452 5.0556L7.04216 3.31879C10.028 1.61639 13.8128 1.4999 17.0042 3.34245C21.4949 5.93513 23.2139 11.4848 21.1217 16.112L22.4635 16.8867L18.2984 19.1008L18.1334 14.3867L19.3788 15.1057ZM4.62961 8.89968C3.08263 12.5633 4.47116 16.8911 8.00421 18.9309C10.5573 20.4049 13.5851 20.3118 15.9737 18.9499L16.9661 20.6867C13.9803 22.389 10.1956 22.5055 7.00421 20.663C2.51357 18.0703 0.794565 12.5206 2.88672 7.89342L1.54492 7.11873L5.70999 4.90463L5.87505 9.61873L4.62961 8.89968ZM13.0042 13.5382H16.0042V15.5382H13.0042V17.5382H11.0042V15.5382H8.00421V13.5382H11.0042V12.5382H8.00421V10.5382H10.59L8.46868 8.41692L9.88289 7.00271L12.0042 9.12403L14.1255 7.00271L15.5397 8.41692L13.4184 10.5382H16.0042V12.5382H13.0042V13.5382Z"/></svg>

<svg viewBox="0 0 24 24" xmlns="http://www.w3.org/2000/svg"><path fill="none" d="M0 0h24v24H0Z"/><path d="M19.375 15.103l0 0c1.71-4.08-.2-8.77-4.28-10.48 -2.3-.97-4.92-.81-7.08.42l-1-1.737L7.01 3.3c3.08-1.77 6.88-1.76 9.96.02 4.49 2.59 6.21 8.142 4.11 12.77l1.34.77 -4.17 2.21 -.17-4.72 1.24.71Zm-14.75-6.21V8.89c-1.72 4.07.19 8.76 4.27 10.47 2.29.96 4.91.8 7.07-.43l.99 1.73v0c-3.09 1.76-6.89 1.75-9.97-.03 -4.49-2.6-6.21-8.15-4.12-12.77L1.52 7.08l4.16-2.22 .16 4.71 -1.25-.72Zm8.37 4.63h3v2h-3v2h-2v-2h-3v-2h3v-1h-3v-2h2.58l-2.122-2.13 1.41-1.42 2.12 2.12 2.12-2.13 1.41 1.41 -2.122 2.122h2.58v2h-3v1Z"/></svg>
